X: 37546
T: Sloping Hills Of Ross, The
R: reel
M: 4/4
K: Eminor
E2FA FE~E2|d2fe dBAF|A2BA FE~E2|d2 FE FDDF|
E2FA FE~E2|d2fe dBAF|AFBc dBAF|1 FEDF E4:|2 FEDF E3A||
|:BcdB ~e3e|e2de fede|fB~B2 fedB|AFDF EFDF|
BcdB ~e3e|e2de fedB|A2Bc dBAF|1 FEDF E3A:|2 FEDF E4||

